X:5870
T:Sprightly Kitty
M:4/4
O:Ireland
R:Reel
Z:Richard Robinson 
%%TUNEURL: http://www.leeds.ac.uk/music/Info/RRTuneBk/gettune/00000940.html
%%ID:00000940
K:D mixolydian
Ad de fd ed | Add2 A2GE | Ad de f3d | cA GE D4:|
|:\
AD D2 cB AG | AD D2 A2 GE | \
AD D2 cB cA | GA GE D4 :|
